X: 1
T: Hag's Purse, The
M: 6/8
L: 1/8
R: jig
K: Dmix
|:A2D FED|A2B cAF|G2E EDE|c2d cAG|
A2D FED|A2B cAF|GFG cGE|DED D3:|
|:d2e =fed|e2d cAF|G2E EDE|c2d cAG|
|Ade =fed|e2d cAF|GFG cGE|DED D3:|
